public/img/facebook.svg

<svg width="25" height="41" viewBox="0 0 25 41" fill="none" xmlns="http://www.w3.org/2000/svg">
<path d="M24.0542 1.6799C24.0542 1.38893 23.9393 1.10988 23.735 0.904133C23.5306 0.698386 23.2534 0.582798 22.9643 0.582798H17.5152C14.7713 0.445201 12.0848 1.40648 10.0428 3.25661C8.00069 5.10674 6.76906 7.69531 6.61695 10.4567V16.3811H1.16782C0.878781 16.3811 0.60158 16.4967 0.397198 16.7024C0.192816 16.9082 0.0779953 17.1872 0.0779953 17.4782V23.1831C0.0779953 23.4741 0.192816 23.7532 0.397198 23.9589C0.60158 24.1646 0.878781 24.2802 1.16782 24.2802H6.61695V38.9814C6.61695 39.2724 6.73177 39.5514 6.93615 39.7572C7.14053 39.9629 7.41774 40.0785 7.70678 40.0785H14.2457C14.5348 40.0785 14.812 39.9629 15.0164 39.7572C15.2207 39.5514 15.3356 39.2724 15.3356 38.9814V24.2802H21.0462C21.2886 24.2837 21.5252 24.2058 21.7186 24.0588C21.9121 23.9117 22.0513 23.704 22.1143 23.4684L23.6836 17.7634C23.727 17.6013 23.7328 17.4314 23.7007 17.2666C23.6685 17.1019 23.5992 16.9468 23.4982 16.8133C23.3971 16.6797 23.2669 16.5713 23.1177 16.4964C22.9685 16.4215 22.8042 16.382 22.6374 16.3811H15.3356V10.4567C15.3898 9.91361 15.6431 9.41034 16.0462 9.04518C16.4492 8.68003 16.973 8.47921 17.5152 8.48194H22.9643C23.2534 8.48194 23.5306 8.36636 23.735 8.16061C23.9393 7.95486 24.0542 7.67581 24.0542 7.38484V1.6799Z" fill="#FBF5EC"/>
</svg>

<svg width="25" height="41" fill="none" xmlns="http://www.w3.org/2000/svg"><path d="M24.054 1.68c0-.291-.115-.57-.319-.776a1.086 1.086 0 0 0-.77-.321h-5.45a10.355 10.355 0 0 0-7.472 2.674 10.494 10.494 0 0 0-3.426 7.2v5.924h-5.45a1.09 1.09 0 0 0-.77.321 1.1 1.1 0 0 0-.319.776v5.705c0 .291.115.57.32.776.204.206.48.321.77.321h5.449v14.701a1.1 1.1 0 0 0 1.09 1.098h6.539a1.1 1.1 0 0 0 1.09-1.098v-14.7h5.71a1.085 1.085 0 0 0 1.068-.813l1.57-5.705a1.104 1.104 0 0 0-.566-1.267 1.083 1.083 0 0 0-.48-.115h-7.302v-5.924a2.199 2.199 0 0 1 .71-1.412 2.171 2.171 0 0 1 1.47-.563h5.448c.29 0 .567-.116.771-.321.204-.206.32-.485.32-.776V1.68Z" fill="#FBF5EC"/></svg>
